X: 6552
T: Catharsis
R: reel
M: 4/4
K: Bminor
FBBA FBBA|FABc dBcA|FBBA FBBA|FEDE DFFD|
FBBA FBBA|FABc dBce|fede dcBA|1 FBBA B2 B2:|2 FBBA Bcde||
fBBe BBdB|BcBB Bcde|fAAe AAdA|AcAA Bcde|
fBBe BBdB|BcBB Bcde|fede dcBA|1 FBBA Bcde:|2 FEDE DFFD||

